assets/svg/1f4e9.svg

<svg xmlns="http://www.w3.org/2000/svg" viewBox="0 0 64 64" enable-background="new 0 0 64 64"><g fill="#b0bdc6"><path d="m.603 52.56l18.517-19.528-14.257-20.719c-.683.905-1.186 2.152-1.329 3.525l-3.493 33.11c-.143 1.362.085 2.643.562 3.612"/><path d="m62.692 8.787l-26.774 25.2 21.1 28.867c1.155-.983 1.989-2.522 2.186-4.378l4.755-45.09c.196-1.87-.316-3.503-1.266-4.609"/></g><path fill="#cad5dd" d="m25.732 43.13l-6.613-10.1-18.516 19.529c.44.895 1.093 1.529 1.88 1.68l50.813 9.688c1.357.26 2.669-.17 3.722-1.065l-21.1-28.869-10.186 9.136"/><path fill="#dfe9ef" d="m59.27 7.322l-52.21 3.574c-.802.056-1.57.598-2.189 1.416l14.256 20.718 6.613 10.1 10.186-9.136 26.773-25.21c-.851-.989-2.045-1.557-3.426-1.465"/><path fill="#ed4c5c" d="m27.12 32.573l-11.729-17.503 4.888-.06.359-14.306 15.09-.704-.382 15.312 8.354.166z"/></svg>

<svg xmlns="http://www.w3.org/2000/svg" width="64" height="64" viewBox="0 0 64 64"><g fill="#B0BDC6"><path d="M.603 52.558L19.12 33.03 4.863 12.311c-.683.905-1.186 2.152-1.329 3.525L.041 48.946c-.143 1.362.085 2.643.562 3.612zM62.692 8.787L35.918 33.992l21.099 28.867c1.155-.983 1.989-2.522 2.186-4.378l4.755-45.085c.196-1.87-.316-3.503-1.266-4.609z"/></g><path fill="#CAD5DD" d="M25.732 43.128l-6.613-10.099L.603 52.558c.44.895 1.093 1.529 1.88 1.68l50.813 9.688c1.357.26 2.669-.17 3.722-1.065l-21.1-28.869-10.186 9.136z"/><path fill="#DFE9EF" d="M59.266 7.322L7.053 10.896c-.802.056-1.57.598-2.189 1.416L19.12 33.03l6.613 10.099 10.186-9.136L62.692 8.787c-.851-.989-2.045-1.557-3.426-1.465z"/><path fill="#ED4C5C" d="M27.12 32.573L15.391 15.071l4.888-.059.359-14.308L35.732 0l-.385 15.312 8.357.166z"/></svg>
